X:16023
T:Penny on the Water
T:Seven Step Schottische
R:Hornpipe
C:Trad.
O:England
Z:Paul Hardy's Session Tunebook 2022 (see www.paulhardy.net). Creative Commons cc by-nc-sa licenced.
M:4/4
L:1/8
Q:1/4=150
K:G
(3DEF|"G"G2G2 G2G2|"D7"FGAF "G"G3A|B2B2 "Em"B2B2|"D7"ABcA "G"B4|
"C"cdec "D7"A2A2|"G"BcdB "Em"G4|"Am"ABcA "D7"FDEF|"G"GABc d4|
"C"cdec "D7"A2A2|"G"BcdB "Em"G4|"Am"ABcA "D7"FDEF|"G"G2G2 G2|]

